en/_assets/wiki/svg/subscriptions.svg

<svg xmlns="http://www.w3.org/2000/svg" xmlns:xlink="http://www.w3.org/1999/xlink" width="18" height="18" class="yc-icon nv-composite-bar__menu-icon" fill="currentColor" stroke="none" aria-hidden="true"><svg viewBox="0 0 16 16" xmlns="http://www.w3.org/2000/svg"><path d="M15.7656 7.28516C14.2891 3.92188 11.3359 1.625 8 1.625C4.63672 1.625 1.68359 3.92188 0.207031 7.28516C0.152344 7.42188 0.125 7.61328 0.125 7.75C0.125 7.88672 0.152344 8.10547 0.207031 8.24219C1.68359 11.6055 4.63672 13.875 8 13.875C11.3359 13.875 14.2891 11.6055 15.7656 8.24219C15.8203 8.10547 15.875 7.88672 15.875 7.75C15.875 7.61328 15.8203 7.42188 15.7656 7.28516ZM8 12.5625C5.26562 12.5625 2.75 10.7305 1.4375 7.77734C2.77734 4.79688 5.26562 2.9375 8 2.9375C10.707 2.9375 13.2227 4.79688 14.5352 7.75C13.1953 10.7305 10.707 12.5625 8 12.5625ZM8 4.25C6.05859 4.25 4.5 5.83594 4.5 7.75C4.5 9.69141 6.05859 11.25 8 11.25C9.91406 11.25 11.5 9.69141 11.5 7.77734C11.5 5.83594 9.91406 4.25 8 4.25ZM8 9.9375C6.76953 9.9375 5.8125 8.98047 5.8125 7.75C5.8125 7.75 5.8125 7.72266 5.8125 7.69531C5.94922 7.75 6.08594 7.75 6.25 7.75C7.20703 7.75 8 6.98438 8 6C8 5.86328 7.97266 5.72656 7.91797 5.58984C7.94531 5.58984 7.97266 5.5625 8 5.5625C9.20312 5.5625 10.1875 6.54688 10.1875 7.77734C10.1875 8.98047 9.20312 9.9375 8 9.9375Z"></path></svg></svg>

<svg xmlns="http://www.w3.org/2000/svg" width="18" height="18" fill="currentColor" aria-hidden="true" class="yc-icon nv-composite-bar__menu-icon">
    <svg xmlns="http://www.w3.org/2000/svg" viewBox="0 0 16 16">
        <path d="M15.766 7.285c-1.477-3.363-4.43-5.66-7.766-5.66-3.363 0-6.316 2.297-7.793 5.66a1.389 1.389 0 0 0-.082.465c0 .137.027.355.082.492 1.477 3.363 4.43 5.633 7.793 5.633 3.336 0 6.29-2.27 7.766-5.633.054-.137.109-.355.109-.492s-.055-.328-.11-.465ZM8 12.562c-2.734 0-5.25-1.832-6.563-4.785 1.34-2.98 3.829-4.84 6.563-4.84 2.707 0 5.223 1.86 6.535 4.813-1.34 2.98-3.828 4.813-6.535 4.813ZM8 4.25a3.507 3.507 0 0 0-3.5 3.5 3.49 3.49 0 0 0 3.5 3.5c1.914 0 3.5-1.559 3.5-3.473C11.5 5.836 9.914 4.25 8 4.25Zm0 5.688A2.16 2.16 0 0 1 5.812 7.75v-.055c.137.055.274.055.438.055C7.207 7.75 8 6.984 8 6a1.09 1.09 0 0 0-.082-.41c.027 0 .055-.027.082-.027a2.2 2.2 0 0 1 2.188 2.214c0 1.203-.985 2.16-2.188 2.16Z"/>
    </svg>
</svg>
